icon/lg/envoy.svg

<?xml version="1.0" encoding="UTF-8"?>
<svg viewBox="0 0 512 166" version="1.1" xmlns="http://www.w3.org/2000/svg" xmlns:xlink="http://www.w3.org/1999/xlink" preserveAspectRatio="xMidYMid" height="1em" width="1em">
  <g>
    <path d="M259.146328,91.1646362 C259.146328,93.3257787 259.637497,95.3886874 260.619834,97.1568949 C261.602172,98.9251024 262.87921,100.496842 264.352717,101.773881 C265.924457,103.05092 267.692664,104.033257 269.755573,104.720894 C271.818482,105.40853 273.979624,105.801465 276.140767,105.801465 C279.087779,105.801465 281.74009,105.113829 283.901233,103.738556 C286.062375,102.363284 288.125284,100.496842 289.991725,98.2374661 L297.261023,103.738556 C291.9564,110.614919 284.490635,114.0531 274.961962,114.0531 C271.032612,114.0531 267.397963,113.365464 264.156249,111.990191 C260.914535,110.614919 258.16399,108.748477 256.002848,106.390867 C253.743472,104.033257 252.073498,101.184479 250.894693,98.0409986 C249.715888,94.7992849 249.126485,91.3611037 249.126485,87.5299874 C249.126485,83.7971049 249.814122,80.2606899 251.09116,77.0189762 C252.368199,73.7772624 254.23464,71.0267174 256.494017,68.6691074 C258.753393,66.3114974 261.503938,64.4450562 264.745652,63.0697837 C267.889132,61.6945112 271.425547,61.0068749 275.158429,61.0068749 C279.578948,61.0068749 283.410064,61.7927449 286.45531,63.3644849 C289.500557,64.9362249 292.054634,66.9991337 294.019309,69.4549774 C295.983984,72.0090549 297.45749,74.7595999 298.341594,78.0013137 C299.225698,81.1447937 299.716866,84.3865074 299.716866,87.6282212 L299.716866,91.0664024 L259.146328,91.0664024 L259.146328,91.1646362 Z M289.402323,83.5024037 C289.304089,81.3412612 289.009388,79.4748199 288.419985,77.7066124 C287.830583,75.9384049 286.946479,74.3666649 285.66944,73.0896262 C284.490635,71.8125874 282.918895,70.7320162 281.150688,70.0443799 C279.38248,69.2585099 277.221338,68.9638087 274.863728,68.9638087 C272.506118,68.9638087 270.344975,69.4549774 268.478534,70.3390812 C266.513859,71.2231849 264.843885,72.4019899 263.566847,73.7772624 C262.191574,75.1525349 261.209237,76.7242749 260.423367,78.4924824 C259.637497,80.2606899 259.342795,81.9306637 259.342795,83.6006374 L289.402323,83.6006374 L289.402323,83.5024037 Z M307.870268,62.4803812 L317.398941,62.4803812 L317.398941,70.2408474 L317.595409,70.2408474 C318.774214,67.5885362 320.935356,65.3291599 323.882369,63.6591862 C326.829381,61.9892124 330.267563,61.2033424 334.196913,61.2033424 C336.652756,61.2033424 338.912133,61.5962774 341.171509,62.2839137 C343.430885,63.0697837 345.39556,64.1503549 346.9673,65.7220949 C348.637274,67.2938349 349.914313,69.2585099 350.994884,71.7143537 C351.977221,74.1701974 352.46839,77.0189762 352.46839,80.3589237 L352.46839,112.776061 L342.939716,112.776061 L342.939716,83.1094687 C342.939716,80.7518587 342.645015,78.7871837 341.957379,77.1172099 C341.367976,75.4472362 340.483873,74.0719637 339.403301,73.0896262 C338.32273,72.1072887 337.143925,71.3214187 335.768653,70.8302499 C334.39338,70.3390812 332.919874,70.1426137 331.446368,70.1426137 C329.481693,70.1426137 327.615251,70.4373149 325.945278,71.1249512 C324.275304,71.7143537 322.801798,72.7949249 321.524759,74.1701974 C320.24772,75.5454699 319.265383,77.3136774 318.577746,79.4748199 C317.89011,81.6359624 317.497175,84.0918062 317.497175,87.0388187 L317.497175,112.972529 L307.968501,112.972529 L307.968501,62.4803812 L307.870268,62.4803812 Z M355.61187,62.4803812 L366.712284,62.4803812 L381.840281,101.086245 L396.280643,62.4803812 L406.496953,62.4803812 L386.751969,112.874295 L376.04449,112.874295 L355.61187,62.4803812 L355.61187,62.4803812 Z M406.988121,87.6282212 C406.988121,83.9935724 407.675758,80.5553912 409.05103,77.3136774 C410.426303,74.1701974 412.292744,71.3214187 414.748588,68.9638087 C417.204431,66.5079649 419.954976,64.6415237 423.294924,63.2662512 C426.536638,61.8909787 430.073053,61.2033424 433.805935,61.2033424 C437.538818,61.2033424 441.075233,61.8909787 444.316946,63.2662512 C447.55866,64.6415237 450.407439,66.5079649 452.863283,68.9638087 C455.319126,71.4196524 457.185568,74.1701974 458.56084,77.3136774 C459.936113,80.4571574 460.623749,83.8953387 460.623749,87.6282212 C460.623749,91.3611037 459.936113,94.7992849 458.56084,97.9427649 C457.185568,101.184479 455.319126,103.935024 452.863283,106.292634 C450.407439,108.650244 447.656894,110.516685 444.316946,111.891957 C441.075233,113.26723 437.538818,113.954866 433.805935,113.954866 C430.073053,113.954866 426.536638,113.26723 423.294924,111.891957 C420.05321,110.516685 417.204431,108.650244 414.748588,106.292634 C412.292744,103.935024 410.426303,101.086245 409.05103,97.9427649 C407.675758,94.7992849 406.988121,91.3611037 406.988121,87.6282212 Z M417.204431,87.6282212 C417.204431,90.1822987 417.597366,92.5399087 418.383236,94.7010512 C419.169106,96.8621936 420.249678,98.7286349 421.723184,100.202141 C423.098456,101.773881 424.866664,102.952686 426.929573,103.83679 C428.992481,104.720894 431.251858,105.212062 433.805935,105.212062 C436.360013,105.212062 438.619389,104.819127 440.682298,103.83679 C442.745206,102.952686 444.513414,101.773881 445.888686,100.202141 C447.263959,98.6304011 448.442764,96.8621936 449.228634,94.7010512 C450.014504,92.5399087 450.407439,90.1822987 450.407439,87.6282212 C450.407439,85.0741437 450.014504,82.7165337 449.228634,80.5553912 C448.442764,78.3942487 447.362193,76.5278074 445.888686,75.0543012 C444.513414,73.5807949 442.745206,72.3037562 440.682298,71.4196524 C438.619389,70.5355487 436.360013,70.0443799 433.805935,70.0443799 C431.251858,70.0443799 428.992481,70.5355487 426.929573,71.4196524 C424.866664,72.3037562 423.098456,73.4825612 421.723184,75.0543012 C420.347911,76.6260412 419.169106,78.3942487 418.383236,80.5553912 C417.597366,82.7165337 417.204431,85.0741437 417.204431,87.6282212 Z M461.311385,62.4803812 L472.313565,62.4803812 L487.245095,101.773881 L487.441563,101.773881 L501.78369,62.4803812 L512,62.4803812 L488.030965,123.680007 C487.146861,125.84115 486.262758,127.904059 485.378654,129.672266 C484.49455,131.440474 483.413979,133.012214 482.13694,134.289252 C480.859901,135.566291 479.288161,136.548629 477.519954,137.236265 C475.751746,137.923901 473.49237,138.316836 470.938293,138.316836 C469.56302,138.316836 468.089514,138.218602 466.616008,138.022135 C465.142501,137.825667 463.767229,137.432732 462.391956,136.941564 L463.570761,128.19876 C465.437203,128.98463 467.401878,129.377565 469.268319,129.377565 C470.741825,129.377565 472.018864,129.181097 473.001201,128.788162 C473.983539,128.395227 474.867643,127.805825 475.653513,127.118189 C476.439383,126.332319 477.028785,125.546449 477.519954,124.465877 C478.011123,123.48354 478.502291,122.304735 478.99346,121.027696 L482.13694,113.070762 L461.311385,62.4803812 L461.311385,62.4803812 Z" fill="#4A0D66"/>
    <path d="M55.3112968,79.8677549 L55.605998,93.2275449 L69.6534243,101.970349 L69.358723,88.6105587 L55.3112968,79.8677549 Z M89.5948755,135.369824 L89.3001742,122.304735 L77.0209555,114.642502 C76.824488,114.544269 76.6280205,114.347801 76.5297868,114.249567 L76.824488,127.41289 L89.5948755,135.369824 L89.5948755,135.369824 Z M45.6843893,152.953665 L13.5619531,133.110447 L12.7760831,99.7109724 L28.4934831,92.9328437 L28.1987818,79.5730537 L3.05094184,90.3787662 C1.08626684,91.2628699 -0.092538158,93.0310774 0.00569559186,95.0939862 L0.988033091,135.173356 C0.988033091,137.236265 2.26507184,139.299174 4.32798059,140.477979 L42.9338443,164.34878 C44.7020518,165.429351 46.8631943,165.724052 48.7296355,165.232884 C48.926103,165.13465 49.1225705,165.13465 49.319038,165.036416 L72.9933718,154.820106 L60.1247505,146.863172 L45.6843893,152.953665 L45.6843893,152.953665 Z" fill="#B31AAB"/>
    <path d="M149.615697,79.0818849 C149.517463,76.7242749 148.14219,74.2684312 145.78458,72.8931587 L98.9270817,43.9142025 L97.4535755,44.503605 L97.7482767,58.5510312 L134.7824,81.5377287 L135.666504,119.063021 L149.812164,127.805825 L150.598034,127.511124 L149.615697,79.0818849 Z M93.5242255,145.094965 L50.104908,118.080684 L49.0243368,72.8931587 L68.8675543,64.3468224 L68.4746193,48.7276562 L37.6292218,61.9892124 C35.3698456,62.9715499 33.9945731,65.0344587 34.0928068,67.4903024 L35.3698456,120.536527 C35.3698456,122.992371 36.8433518,125.349981 39.2009618,126.725254 L90.184278,158.356521 C92.2471867,159.63356 94.8012642,160.026495 96.9624067,159.338859 C97.1588742,159.240625 97.3553417,159.142391 97.5518092,159.142391 L127.70957,146.175536 L112.77804,136.941564 L93.5242255,145.094965 L93.5242255,145.094965 Z" fill="#D163CE"/>
    <path d="M215.923478,41.9495275 L150.4998,1.47722251 C148.043957,0.00371626094 145.195178,-0.389218739 142.739334,0.39665126 C142.542867,0.49488501 142.248165,0.59311876 142.051698,0.69135251 L78.2979943,28.1968025 C75.7439168,29.2773737 74.1721768,31.6349837 74.2704105,34.4837625 L75.8421505,102.461517 C75.9403843,105.212062 77.610358,107.962607 80.2626692,109.534347 L145.588113,150.006652 C147.945723,151.480159 150.892735,151.873094 153.348579,151.087224 C153.545047,150.98899 153.839748,150.890756 154.036215,150.792522 L217.789919,123.287072 C220.343997,122.206501 221.915737,119.750657 221.817503,117.000112 L220.245763,49.0223575 C220.245763,46.2718125 218.575789,43.6195012 215.923478,41.9495275 Z M149.517463,134.780421 L92.7383555,99.6127386 L91.2648492,40.4760212 L146.668684,16.60522 L203.447792,51.7729025 L204.823064,110.811386 L149.517463,134.780421 L149.517463,134.780421 Z" fill="#E13EAF"/>
  </g>
</svg>

<svg width="512" height="166" xmlns="http://www.w3.org/2000/svg" preserveAspectRatio="xMidYMid"><path d="M259.146 91.165c0 2.16.491 4.224 1.474 5.992a17.139 17.139 0 0 0 3.733 4.617 16.91 16.91 0 0 0 5.403 2.947c2.062.688 4.224 1.08 6.385 1.08 2.947 0 5.6-.687 7.76-2.062 2.161-1.376 4.224-3.242 6.09-5.502l7.27 5.502c-5.305 6.876-12.77 10.314-22.299 10.314-3.93 0-7.564-.688-10.806-2.063-3.241-1.375-5.992-3.242-8.153-5.6-2.26-2.357-3.93-5.206-5.108-8.349-1.18-3.242-1.769-6.68-1.769-10.511 0-3.733.688-7.27 1.965-10.511 1.277-3.242 3.144-5.992 5.403-8.35 2.26-2.358 5.01-4.224 8.252-5.6 3.143-1.374 6.68-2.062 10.412-2.062 4.42 0 8.252.786 11.297 2.357 3.046 1.572 5.6 3.635 7.564 6.091 1.965 2.554 3.438 5.305 4.323 8.546.884 3.144 1.375 6.386 1.375 9.627v3.438h-40.57v.099Zm30.256-7.663c-.098-2.16-.393-4.027-.982-5.795-.59-1.769-1.474-3.34-2.75-4.617-1.18-1.277-2.751-2.358-4.52-3.046-1.768-.785-3.929-1.08-6.286-1.08-2.358 0-4.519.491-6.385 1.375-1.965.884-3.635 2.063-4.912 3.438-1.375 1.376-2.358 2.947-3.144 4.715a12.264 12.264 0 0 0-1.08 5.109h30.06v-.099ZM307.87 62.48h9.529v7.76h.196c1.18-2.651 3.34-4.91 6.287-6.58s6.386-2.457 10.315-2.457c2.456 0 4.715.393 6.975 1.08 2.259.787 4.224 1.867 5.795 3.44 1.67 1.57 2.947 3.536 4.028 5.991.982 2.456 1.473 5.305 1.473 8.645v32.417h-9.528V83.11c0-2.357-.295-4.322-.983-5.992-.589-1.67-1.473-3.045-2.554-4.027-1.08-.983-2.26-1.769-3.634-2.26-1.376-.49-2.85-.687-4.323-.687-1.964 0-3.83.294-5.5.982-1.67.59-3.144 1.67-4.421 3.045-1.277 1.375-2.26 3.144-2.947 5.305-.688 2.161-1.08 4.617-1.08 7.564v25.934h-9.53V62.48h-.098Zm47.742 0h11.1l15.128 38.606 14.44-38.606h10.217l-19.745 50.394h-10.708L355.612 62.48Zm51.376 25.148c0-3.634.688-7.073 2.063-10.314 1.375-3.144 3.242-5.993 5.698-8.35a25.567 25.567 0 0 1 8.546-5.698c3.242-1.375 6.778-2.063 10.51-2.063 3.734 0 7.27.688 10.512 2.063 3.242 1.376 6.09 3.242 8.546 5.698a26.847 26.847 0 0 1 5.698 8.35c1.375 3.143 2.063 6.581 2.063 10.314 0 3.733-.688 7.171-2.063 10.315-1.375 3.241-3.242 5.992-5.698 8.35-2.456 2.357-5.206 4.224-8.546 5.599-3.242 1.375-6.778 2.063-10.511 2.063-3.733 0-7.27-.688-10.511-2.063-3.242-1.375-6.09-3.242-8.546-5.6-2.456-2.357-4.323-5.206-5.698-8.35-1.375-3.143-2.063-6.58-2.063-10.314Zm10.216 0c0 2.554.393 4.912 1.18 7.073.785 2.161 1.866 4.028 3.34 5.501 1.374 1.572 3.143 2.75 5.206 3.635 2.062.884 4.322 1.375 6.876 1.375 2.554 0 4.813-.393 6.876-1.375 2.063-.884 3.831-2.063 5.207-3.635 1.375-1.572 2.554-3.34 3.34-5.5.786-2.162 1.178-4.52 1.178-7.074 0-2.554-.392-4.911-1.178-7.073-.786-2.16-1.867-4.027-3.34-5.5a15.48 15.48 0 0 0-5.207-3.635c-2.063-.884-4.322-1.376-6.876-1.376-2.554 0-4.814.492-6.876 1.376-2.063.884-3.832 2.063-5.207 3.634-1.375 1.572-2.554 3.34-3.34 5.501-.786 2.162-1.179 4.52-1.179 7.073Zm44.107-25.148h11.003l14.931 39.294h.197l14.342-39.294H512l-23.969 61.2c-.884 2.161-1.768 4.224-2.652 5.992-.884 1.768-1.965 3.34-3.242 4.617-1.277 1.277-2.849 2.26-4.617 2.947-1.768.688-4.028 1.08-6.582 1.08-1.375 0-2.848-.097-4.322-.294-1.473-.196-2.849-.59-4.224-1.08l1.179-8.743c1.866.786 3.83 1.179 5.697 1.179 1.474 0 2.75-.197 3.733-.59.983-.393 1.867-.982 2.653-1.67.785-.786 1.375-1.572 1.866-2.652.491-.982.982-2.161 1.473-3.438l3.144-7.957-20.826-50.59Z" fill="#4A0D66"/><path d="m55.311 79.868.295 13.36 14.047 8.742-.294-13.36-14.048-8.742Zm34.284 55.502-.295-13.065-12.279-7.662c-.197-.099-.393-.295-.491-.393l.294 13.163 12.77 7.957Zm-43.91 17.584L13.561 133.11l-.786-33.399 15.717-6.778-.294-13.36L3.05 90.38c-1.965.884-3.144 2.652-3.045 4.715l.982 40.08c0 2.062 1.277 4.125 3.34 5.304l38.606 23.87c1.768 1.081 3.93 1.376 5.796.885.196-.098.393-.098.589-.197l23.674-10.216-12.868-7.957-14.44 6.09Z" fill="#B31AAB"/><path d="M149.616 79.082c-.099-2.358-1.474-4.814-3.831-6.189L98.927 43.914l-1.473.59.294 14.047 37.034 22.987.885 37.525 14.145 8.743.786-.295-.982-48.43Zm-56.092 66.013-43.42-27.014-1.08-45.188 19.844-8.546-.393-15.62L37.629 61.99c-2.26.983-3.634 3.045-3.536 5.501l1.277 53.047c0 2.455 1.473 4.813 3.831 6.188l50.983 31.632c2.063 1.277 4.617 1.67 6.778.982.197-.098.393-.197.59-.197l30.158-12.966-14.932-9.234-19.254 8.153Z" fill="#D163CE"/><path d="M215.923 41.95 150.5 1.477c-2.456-1.473-5.305-1.866-7.76-1.08-.197.098-.492.196-.688.294L78.298 28.197c-2.554 1.08-4.126 3.438-4.028 6.287l1.572 67.978c.098 2.75 1.768 5.5 4.42 7.072l65.326 40.473c2.358 1.473 5.305 1.866 7.76 1.08.197-.098.492-.196.688-.294l63.754-27.506c2.554-1.08 4.126-3.536 4.028-6.287l-1.572-67.978c0-2.75-1.67-5.402-4.323-7.072Zm-66.406 92.83L92.738 99.613l-1.473-59.137 55.404-23.87 56.779 35.167 1.375 59.038-55.306 23.97Z" fill="#E13EAF"/></svg>
